foodtherapy/img/icons/close.svg

<svg width="42" height="39" viewBox="0 0 42 39" fill="none" xmlns="http://www.w3.org/2000/svg">
<path fill-rule="evenodd" clip-rule="evenodd" d="M10.1735 9.41438C10.686 8.94 11.5171 8.94 12.0296 9.41438L21.0011 17.7174L29.9725 9.41438C30.485 8.94 31.3161 8.94 31.8286 9.41438C32.3412 9.88876 32.3412 10.6579 31.8286 11.1323L22.8572 19.4353L31.8286 27.7384C32.3412 28.2127 32.3412 28.9819 31.8286 29.4562C31.3161 29.9306 30.485 29.9306 29.9725 29.4562L21.0011 21.1532L12.0296 29.4562C11.5171 29.9306 10.686 29.9306 10.1735 29.4562C9.66092 28.9819 9.66092 28.2127 10.1735 27.7384L19.1449 19.4353L10.1735 11.1323C9.66092 10.6579 9.66092 9.88876 10.1735 9.41438Z" fill="#9BA2AC"/>
</svg>

<svg width="42" height="39" fill="none" xmlns="http://www.w3.org/2000/svg"><path fill-rule="evenodd" clip-rule="evenodd" d="M10.174 9.414a1.388 1.388 0 011.856 0L21 17.717l8.971-8.303a1.388 1.388 0 011.857 0 1.152 1.152 0 010 1.718l-8.972 8.303 8.972 8.303a1.152 1.152 0 010 1.718 1.388 1.388 0 01-1.857 0l-8.97-8.303-8.972 8.303a1.388 1.388 0 01-1.856 0 1.152 1.152 0 010-1.718l8.97-8.303-8.97-8.303a1.152 1.152 0 010-1.718z" fill="#9BA2AC"/></svg>
